Newaita-dark/mimetypes/22/application-x-firmware.svg

<svg height="22pt" viewBox="0 0 22 22" width="22pt" xmlns="http://www.w3.org/2000/svg" xmlns:xlink="http://www.w3.org/1999/xlink"><linearGradient id="a"><stop offset="0" stop-opacity=".27451"/><stop offset="1" stop-opacity="0"/></linearGradient><linearGradient id="b" gradientUnits="userSpaceOnUse" x1="11.3699116" x2="11.3699116" xlink:href="#a" y1="19.27333615" y2="20.18292934324"/><linearGradient id="c"><stop offset="0" stop-opacity=".313725"/><stop offset=".222222" stop-opacity=".27451"/><stop offset="1" stop-opacity="0"/></linearGradient><radialGradient id="d" cx="450.90894" cy="189.57936" gradientTransform="matrix(.00000012 -.0537161 -.0966889 -.00000007 34.020641 43.721792)" gradientUnits="userSpaceOnUse" r="21.166656" xlink:href="#c"/><radialGradient id="e" cx="450.90894" cy="189.57936" gradientTransform="matrix(-.00000012 .0537161 .0966889 .00000007 -12.645223 -5.175142)" gradientUnits="userSpaceOnUse" r="21.166656" xlink:href="#c"/><radialGradient id="f" cx="450.90894" cy="189.57936" gradientTransform="matrix(-.00000012 -.0537161 .0966889 -.00000007 -12.645223 43.721792)" gradientUnits="userSpaceOnUse" r="21.166656" xlink:href="#c"/><radialGradient id="g" cx="450.90894" cy="189.57936" gradientTransform="matrix(.00000012 .0537161 -.0966889 .00000007 34.020639 -5.175142)" gradientUnits="userSpaceOnUse" r="21.166656" xlink:href="#c"/><linearGradient id="h" gradientUnits="userSpaceOnUse" x1="10.687706" x2="10.687706" y1="19.27332442218" y2="1.99107551259"><stop offset="0" stop-color="#a5d6a7"/><stop offset="1" stop-color="#c8e6c9"/></linearGradient><linearGradient id="i" gradientTransform="matrix(.0205522 0 0 .0752024 10.341666 -11.361824)" gradientUnits="userSpaceOnUse" x1="249.18942" x2="249.18942" xlink:href="#a" y1="233.5" y2="254.66669"/><linearGradient id="j"><stop offset="0" stop-color="#66bb6a"/><stop offset="1" stop-color="#81c784"/></linearGradient><linearGradient id="k" gradientUnits="userSpaceOnUse" x1="14.55348851351" x2="14.55348851351" xlink:href="#j" y1="19.27333515" y2="1.99106705676"/><linearGradient id="l" gradientUnits="userSpaceOnUse" x1="940" x2="940" xlink:href="#j" y1="1695.1182" y2="175.11812"/><path d="m5.457031 19.273438h10.460938v.910156h-10.460938zm0 0" fill="url(#b)"/><path d="m15.917969 19.273438h1.820312v-.910157h-1.820312zm0 0" fill="url(#d)"/><path d="m5.457031 19.273438h-1.820312v.910156h1.820312zm0 0" fill="url(#e)"/><path d="m5.457031 19.273438h-1.820312v-.910157h1.820312zm0 0" fill="url(#f)"/><path d="m15.917969 19.273438h1.820312v.910156h-1.820312zm0 0" fill="url(#g)"/><path d="m12.746094 1.992188h-8.199219c-.503906 0-.910156.40625-.910156.910156v15.460937c0 .503907.40625.910157.910156.910157h12.28125c.503906 0 .910156-.40625.910156-.910157v-11.382812zm0 0" fill="url(#h)"/><path d="m12.734375 6.199219h4.320313l.683593.679687v.910156h-5.003906zm0 0" fill="url(#i)"/><path d="m3.636719 18.011719v.351562c0 .503907.40625.910157.910156.910157h12.28125c.503906 0 .910156-.40625.910156-.910157v-.351562c0 .503906-.40625.910156-.910156.910156h-12.28125c-.503906 0-.910156-.40625-.910156-.910156zm0 0" fill-opacity=".235294"/><path d="m4.546875 1.992188c-.503906 0-.910156.40625-.910156.910156v.339844c0-.503907.40625-.910157.910156-.910157h8.199219l4.992187 4.988281v-.339843l-4.992187-4.988281zm0 0" fill="#fff" fill-opacity=".313725"/><path d="m17.738281 6.980469-4.992187-4.988281v4.078124c0 .503907.40625.910157.910156.910157zm0 0" fill="url(#k)"/><path d="m12.746094 5.855469v.214843c0 .503907.40625.910157.910156.910157h4.082031l-.214843-.214844h-3.867188c-.503906 0-.910156-.40625-.910156-.910156zm0 0" fill-opacity=".235294"/><path d="m12.746094 1.992188v.339843l4.648437 4.648438h.34375zm0 0" fill="#fff" fill-opacity=".392157"/><path d="m12.746094 1.925781c-.035156 0-.0625.03125-.0625.066407v4.078124c0 .539063.433594.972657.972656.972657h4.082031c.023438 0 .046875-.015625.058594-.039063.007813-.023437.003906-.050781-.015625-.070312l-4.988281-4.988282c-.011719-.011718-.027344-.019531-.046875-.019531zm.066406.222657 4.769531 4.765624h-3.925781c-.46875 0-.84375-.375-.84375-.84375zm0 0" fill="#212121"/><path d="m4.546875 1.925781c-.539063 0-.972656.4375-.972656.976563v15.460937c0 .539063.433593.972657.972656.972657h12.28125c.539063 0 .972656-.433594.972656-.972657v-11.382812c0-.015625-.007812-.035157-.019531-.046875l-4.988281-4.988282c-.011719-.011718-.027344-.019531-.046875-.019531zm0 .128907h8.175781l4.949219 4.953124v11.355469c0 .46875-.375.84375-.84375.84375h-12.28125c-.46875 0-.84375-.375-.84375-.84375v-15.460937c0-.472656.375-.847656.84375-.847656zm0 0" fill="#212121"/><path d="m820.079177 695.023115c-10.99394 0-19.926515 8.932576-19.926515 19.926515v40.196592h-20.270076c-32.981819 0-59.779547 26.797727-59.779547 60.123106v19.926516h-40.196591c-10.99394 0-19.926515 8.932576-19.926515 19.926515 0 10.99394 8.932575 19.926516 19.926515 19.926516h40.196591v80.049622h-40.196591c-10.99394 0-19.926515 8.932576-19.926515 19.926515 0 11.3375 8.932575 19.926516 19.926515 19.926516h40.196591v80.049622h-40.196591c-10.99394 0-19.926515 8.932576-19.926515 20.270076 0 10.993939 8.932575 19.926515 19.926515 19.926515h40.196591v19.926516c0 33.325379 26.797728 60.123107 59.779547 60.123107h20.270076v39.85303c0 10.99394 8.932575 19.926516 19.926515 19.926516s19.926515-8.932576 19.926515-19.926516v-39.85303h80.049623v39.85303c0 10.99394 8.932575 19.926516 19.926515 19.926516s19.926515-8.932576 19.926515-19.926516v-39.85303h80.049623v39.85303c0 10.99394 8.932576 19.926516 19.926515 19.926516 11.3375 0 20.270076-8.932576 20.270076-19.926516v-39.85303h19.926515c33.32538 0 59.779547-26.797728 59.779547-60.123107v-19.926516h40.196591c10.99394 0 19.926515-8.932576 19.926515-19.926515 0-11.3375-8.932575-20.270076-19.926515-20.270076h-40.196591v-80.049622h40.196591c10.99394 0 19.926515-8.589016 19.926515-19.926516 0-10.993939-8.932575-19.926515-19.926515-19.926515h-40.196591v-80.049622h40.196591c10.99394 0 19.926515-8.932576 19.926515-19.926516 0-10.993939-8.932575-19.926515-19.926515-19.926515h-40.196591v-19.926516c0-33.325379-26.454167-60.123106-59.779547-60.123106h-19.926515v-40.196592c0-10.993939-8.932576-19.926515-20.270076-19.926515-10.993939 0-19.926515 8.932576-19.926515 19.926515v40.196592h-80.049623v-40.196592c0-10.993939-8.932575-19.926515-19.926515-19.926515s-19.926515 8.932576-19.926515 19.926515v40.196592h-80.049623v-40.196592c0-10.993939-8.932575-19.926515-19.926515-19.926515zm0 0" fill="url(#l)" stroke="#212121" stroke-linecap="round" stroke-linejoin="round" stroke-width="11.338583" transform="scale(.0113699)"/></svg>

<svg xmlns="http://www.w3.org/2000/svg" xmlns:xlink="http://www.w3.org/1999/xlink" width="22px" height="22px" viewBox="0 0 22 22" version="1.1">
<defs>
<linearGradient id="linear0" gradientUnits="userSpaceOnUse" x1="33.076088" y1="56.067871" x2="33.076088" y2="58.713959" gradientTransform="matrix(0.34375,0,0,0.34375,0,0)">
<stop offset="0" style="stop-color:rgb(0%,0%,0%);stop-opacity:0.27451;"/>
<stop offset="1" style="stop-color:rgb(0%,0%,0%);stop-opacity:0;"/>
</linearGradient>
<radialGradient id="radial0" gradientUnits="userSpaceOnUse" cx="450.908936" cy="189.579361" fx="450.908936" fy="189.579361" r="21.166656" gradientTransform="matrix(0.000000120312,-0.0537161,-0.096689,-0.00000006875,34.020642,43.721792)">
<stop offset="0" style="stop-color:rgb(0%,0%,0%);stop-opacity:0.313725;"/>
<stop offset="0.222222" style="stop-color:rgb(0%,0%,0%);stop-opacity:0.27451;"/>
<stop offset="1" style="stop-color:rgb(0%,0%,0%);stop-opacity:0;"/>
</radialGradient>
<radialGradient id="radial1" gradientUnits="userSpaceOnUse" cx="450.908936" cy="189.579361" fx="450.908936" fy="189.579361" r="21.166656" gradientTransform="matrix(-0.000000120312,0.0537161,0.096689,0.00000006875,-12.645223,-5.175142)">
<stop offset="0" style="stop-color:rgb(0%,0%,0%);stop-opacity:0.313725;"/>
<stop offset="0.222222" style="stop-color:rgb(0%,0%,0%);stop-opacity:0.27451;"/>
<stop offset="1" style="stop-color:rgb(0%,0%,0%);stop-opacity:0;"/>
</radialGradient>
<radialGradient id="radial2" gradientUnits="userSpaceOnUse" cx="450.908936" cy="189.579361" fx="450.908936" fy="189.579361" r="21.166656" gradientTransform="matrix(-0.000000120312,-0.0537161,0.096689,-0.00000006875,-12.645223,43.721792)">
<stop offset="0" style="stop-color:rgb(0%,0%,0%);stop-opacity:0.313725;"/>
<stop offset="0.222222" style="stop-color:rgb(0%,0%,0%);stop-opacity:0.27451;"/>
<stop offset="1" style="stop-color:rgb(0%,0%,0%);stop-opacity:0;"/>
</radialGradient>
<radialGradient id="radial3" gradientUnits="userSpaceOnUse" cx="450.908936" cy="189.579361" fx="450.908936" fy="189.579361" r="21.166656" gradientTransform="matrix(0.000000120312,0.0537161,-0.096689,0.00000006875,34.020639,-5.175142)">
<stop offset="0" style="stop-color:rgb(0%,0%,0%);stop-opacity:0.313725;"/>
<stop offset="0.222222" style="stop-color:rgb(0%,0%,0%);stop-opacity:0.27451;"/>
<stop offset="1" style="stop-color:rgb(0%,0%,0%);stop-opacity:0;"/>
</radialGradient>
<linearGradient id="linear1" gradientUnits="userSpaceOnUse" x1="31.091534" y1="56.067898" x2="31.091534" y2="5.792224" gradientTransform="matrix(0.34375,0,0,0.34375,0,0)">
<stop offset="0" style="stop-color:rgb(64.705884%,83.92157%,65.490198%);stop-opacity:1;"/>
<stop offset="1" style="stop-color:rgb(78.431374%,90.196079%,78.823531%);stop-opacity:1;"/>
</linearGradient>
<linearGradient id="linear2" gradientUnits="userSpaceOnUse" x1="249.189423" y1="233.5" x2="249.189423" y2="254.666687" gradientTransform="matrix(0.0205522,0,0,0.0752025,10.341665,-11.361824)">
<stop offset="0" style="stop-color:rgb(0%,0%,0%);stop-opacity:0.27451;"/>
<stop offset="1" style="stop-color:rgb(0%,0%,0%);stop-opacity:0;"/>
</linearGradient>
<linearGradient id="linear3" gradientUnits="userSpaceOnUse" x1="42.337395" y1="56.067867" x2="42.337395" y2="5.792208" gradientTransform="matrix(0.34375,0,0,0.34375,0,0)">
<stop offset="0" style="stop-color:rgb(40.000001%,73.333335%,41.568628%);stop-opacity:1;"/>
<stop offset="1" style="stop-color:rgb(50.588238%,78.039217%,51.764709%);stop-opacity:1;"/>
</linearGradient>
<linearGradient id="linear4" gradientUnits="userSpaceOnUse" x1="940" y1="1695.118164" x2="940" y2="175.118118" >
<stop offset="0" style="stop-color:rgb(40.000001%,73.333335%,41.568628%);stop-opacity:1;"/>
<stop offset="1" style="stop-color:rgb(50.588238%,78.039217%,51.764709%);stop-opacity:1;"/>
</linearGradient>
</defs>
<g id="surface1">
<path style=" stroke:none;fill-rule:nonzero;fill:url(#linear0);" d="M 5.457031 19.273438 L 15.917969 19.273438 L 15.917969 20.183594 L 5.457031 20.183594 Z M 5.457031 19.273438 "/>
<path style=" stroke:none;fill-rule:nonzero;fill:url(#radial0);" d="M 15.917969 19.273438 L 17.738281 19.273438 L 17.738281 18.363281 L 15.917969 18.363281 Z M 15.917969 19.273438 "/>
<path style=" stroke:none;fill-rule:nonzero;fill:url(#radial1);" d="M 5.457031 19.273438 L 3.640625 19.273438 L 3.640625 20.183594 L 5.457031 20.183594 Z M 5.457031 19.273438 "/>
<path style=" stroke:none;fill-rule:nonzero;fill:url(#radial2);" d="M 5.457031 19.273438 L 3.640625 19.273438 L 3.640625 18.363281 L 5.457031 18.363281 Z M 5.457031 19.273438 "/>
<path style=" stroke:none;fill-rule:nonzero;fill:url(#radial3);" d="M 15.917969 19.273438 L 17.738281 19.273438 L 17.738281 20.183594 L 15.917969 20.183594 Z M 15.917969 19.273438 "/>
<path style=" stroke:none;fill-rule:nonzero;fill:url(#linear1);" d="M 12.75 1.992188 L 4.546875 1.992188 C 4.042969 1.992188 3.640625 2.398438 3.640625 2.898438 L 3.640625 18.363281 C 3.640625 18.867188 4.042969 19.273438 4.546875 19.273438 L 16.828125 19.273438 C 17.332031 19.273438 17.738281 18.867188 17.738281 18.363281 L 17.738281 6.980469 Z M 12.75 1.992188 "/>
<path style=" stroke:none;fill-rule:nonzero;fill:url(#linear2);" d="M 12.734375 6.199219 L 17.054688 6.199219 L 17.738281 6.878906 L 17.738281 7.789062 L 12.734375 7.789062 Z M 12.734375 6.199219 "/>
<path style=" stroke:none;fill-rule:nonzero;fill:rgb(0%,0%,0%);fill-opacity:0.235294;" d="M 3.640625 18.011719 L 3.640625 18.363281 C 3.640625 18.867188 4.042969 19.273438 4.546875 19.273438 L 16.828125 19.273438 C 17.332031 19.273438 17.738281 18.867188 17.738281 18.363281 L 17.738281 18.011719 C 17.738281 18.515625 17.332031 18.917969 16.828125 18.917969 L 4.546875 18.917969 C 4.042969 18.917969 3.640625 18.515625 3.640625 18.011719 Z M 3.640625 18.011719 "/>
<path style=" stroke:none;fill-rule:nonzero;fill:rgb(100%,100%,100%);fill-opacity:0.313725;" d="M 4.546875 1.992188 C 4.042969 1.992188 3.640625 2.398438 3.640625 2.898438 L 3.640625 3.242188 C 3.640625 2.738281 4.042969 2.332031 4.546875 2.332031 L 12.75 2.332031 L 17.738281 7.320312 L 17.738281 6.980469 L 12.75 1.992188 Z M 4.546875 1.992188 "/>
<path style=" stroke:none;fill-rule:nonzero;fill:url(#linear3);" d="M 17.738281 6.980469 L 12.75 1.992188 L 12.75 6.070312 C 12.75 6.574219 13.152344 6.980469 13.65625 6.980469 Z M 17.738281 6.980469 "/>
<path style=" stroke:none;fill-rule:nonzero;fill:rgb(0%,0%,0%);fill-opacity:0.235294;" d="M 12.75 5.855469 L 12.75 6.070312 C 12.75 6.574219 13.152344 6.980469 13.65625 6.980469 L 17.738281 6.980469 L 17.523438 6.765625 L 13.65625 6.765625 C 13.152344 6.765625 12.75 6.359375 12.75 5.855469 Z M 12.75 5.855469 "/>
<path style=" stroke:none;fill-rule:nonzero;fill:rgb(100%,100%,100%);fill-opacity:0.392157;" d="M 12.75 1.992188 L 12.75 2.332031 L 17.394531 6.980469 L 17.738281 6.980469 Z M 12.75 1.992188 "/>
<path style=" stroke:none;fill-rule:nonzero;fill:rgb(12.941177%,12.941177%,12.941177%);fill-opacity:1;" d="M 12.746094 1.925781 C 12.710938 1.925781 12.683594 1.957031 12.683594 1.992188 L 12.683594 6.070312 C 12.683594 6.609375 13.117188 7.046875 13.65625 7.046875 L 17.738281 7.046875 C 17.761719 7.042969 17.785156 7.03125 17.796875 7.003906 C 17.804688 6.980469 17.800781 6.953125 17.78125 6.933594 L 12.792969 1.945312 C 12.78125 1.933594 12.765625 1.925781 12.746094 1.925781 Z M 12.8125 2.148438 L 17.582031 6.914062 L 13.65625 6.914062 C 13.1875 6.914062 12.8125 6.539062 12.8125 6.070312 Z M 12.8125 2.148438 "/>
<path style=" stroke:none;fill-rule:nonzero;fill:rgb(12.941177%,12.941177%,12.941177%);fill-opacity:1;" d="M 4.546875 1.925781 C 4.007812 1.925781 3.574219 2.363281 3.574219 2.898438 L 3.574219 18.363281 C 3.574219 18.902344 4.007812 19.335938 4.546875 19.335938 L 16.828125 19.335938 C 17.367188 19.335938 17.800781 18.902344 17.800781 18.363281 L 17.800781 6.980469 C 17.800781 6.964844 17.792969 6.949219 17.78125 6.933594 L 12.792969 1.945312 C 12.78125 1.933594 12.765625 1.925781 12.75 1.925781 Z M 4.546875 2.054688 L 12.722656 2.054688 L 17.671875 7.007812 L 17.671875 18.363281 C 17.671875 18.832031 17.296875 19.207031 16.828125 19.207031 L 4.546875 19.207031 C 4.078125 19.207031 3.703125 18.832031 3.703125 18.363281 L 3.703125 2.898438 C 3.703125 2.433594 4.078125 2.054688 4.546875 2.054688 Z M 4.546875 2.054688 "/>
<path style="fill-rule:nonzero;fill:url(#linear4);stroke-width:11.338583;stroke-linecap:round;stroke-linejoin:round;stroke:rgb(12.941177%,12.941177%,12.941177%);stroke-opacity:1;stroke-miterlimit:4;" d="M 820.078545 695.022579 C 809.084614 695.022579 800.152045 703.955148 800.152045 714.949079 L 800.152045 755.14564 L 779.881984 755.14564 C 746.900191 755.14564 720.102484 781.943347 720.102484 815.2687 L 720.102484 835.1952 L 679.905924 835.1952 C 668.911993 835.1952 659.979424 844.127769 659.979424 855.1217 C 659.979424 866.115631 668.911993 875.0482 679.905924 875.0482 L 720.102484 875.0482 L 720.102484 955.097761 L 679.905924 955.097761 C 668.911993 955.097761 659.979424 964.03033 659.979424 975.024261 C 659.979424 986.361752 668.911993 994.950761 679.905924 994.950761 L 720.102484 994.950761 L 720.102484 1075.343882 L 679.905924 1075.343882 C 668.911993 1075.343882 659.979424 1083.93289 659.979424 1095.270382 C 659.979424 1106.264313 668.911993 1115.196882 679.905924 1115.196882 L 720.102484 1115.196882 L 720.102484 1135.123382 C 720.102484 1168.448735 746.900191 1195.246442 779.881984 1195.246442 L 800.152045 1195.246442 L 800.152045 1235.099442 C 800.152045 1246.093373 809.084614 1255.025942 820.078545 1255.025942 C 831.072476 1255.025942 840.005045 1246.093373 840.005045 1235.099442 L 840.005045 1195.246442 L 920.054605 1195.246442 L 920.054605 1235.099442 C 920.054605 1246.093373 928.987174 1255.025942 939.981105 1255.025942 C 950.975037 1255.025942 959.907606 1246.093373 959.907606 1235.099442 L 959.907606 1195.246442 L 1039.957166 1195.246442 L 1039.957166 1235.099442 C 1039.957166 1246.093373 1048.889735 1255.025942 1060.227226 1255.025942 C 1070.877597 1255.025942 1080.153726 1246.093373 1080.153726 1235.099442 L 1080.153726 1195.246442 L 1100.080227 1195.246442 C 1133.40558 1195.246442 1159.859727 1168.448735 1159.859727 1135.123382 L 1159.859727 1115.196882 L 1200.056287 1115.196882 C 1211.050218 1115.196882 1219.982787 1106.264313 1219.982787 1095.270382 C 1219.982787 1083.93289 1211.050218 1075.343882 1200.056287 1075.343882 L 1159.859727 1075.343882 L 1159.859727 994.950761 L 1200.056287 994.950761 C 1211.050218 994.950761 1219.982787 986.361752 1219.982787 975.024261 C 1219.982787 964.03033 1211.050218 955.097761 1200.056287 955.097761 L 1159.859727 955.097761 L 1159.859727 875.0482 L 1200.056287 875.0482 C 1211.050218 875.0482 1219.982787 866.115631 1219.982787 855.1217 C 1219.982787 844.127769 1211.050218 835.1952 1200.056287 835.1952 L 1159.859727 835.1952 L 1159.859727 815.2687 C 1159.859727 781.943347 1133.40558 755.14564 1100.080227 755.14564 L 1080.153726 755.14564 L 1080.153726 714.949079 C 1080.153726 703.955148 1070.877597 695.022579 1060.227226 695.022579 C 1048.889735 695.022579 1039.957166 703.955148 1039.957166 714.949079 L 1039.957166 755.14564 L 959.907606 755.14564 L 959.907606 714.949079 C 959.907606 703.955148 950.975037 695.022579 939.981105 695.022579 C 928.987174 695.022579 920.054605 703.955148 920.054605 714.949079 L 920.054605 755.14564 L 840.005045 755.14564 L 840.005045 714.949079 C 840.005045 703.955148 831.072476 695.022579 820.078545 695.022579 Z M 820.078545 695.022579 " transform="matrix(0.0113699,0,0,0.0113699,0,0)"/>
</g>
</svg>
